X: 23
T: Amerikatur no 1
C: Sven Nyhus
O: Rros, Sr-Trndelag, Norge
Z: Transcribed to abc by Jon Magnusson 080411
R: Rrospols
M: 3/4
L: 1/8
K: D
N: Norge
f|:a2 (3 faf d>f|g2 (3 aga b>b|(3 a2g2e2 c>e|d2 (3ede f>f|
a2 (3 faf d>f|g2 (3 aga b>b|(3 a2g2e2 c>e|[1 d2 d3 f:|[2 d2d4|]
(3 A2f2e2 d>c|(3 B2g2f2 e>d|(3 c2c2A2 B>c|d2 (3 ede f2|
(3 A2f2e2 d>c|(3 B2g2f2 e>d|(3 c2c2A2 B>c|d2d4:|
